svg/expand.svg

<svg width="24" height="24" viewBox="0 0 24 24" fill="none" xmlns="http://www.w3.org/2000/svg">
<path d="M6 7.41421V9C6 9.55229 5.55228 10 5 10C4.44772 10 4 9.55229 4 9L4 5C4 4.44772 4.44772 4 5 4L9 4C9.55229 4 10 4.44772 10 5C10 5.55228 9.55229 6 9 6H7.41421L9.70711 8.29289C10.0976 8.68342 10.0976 9.31658 9.70711 9.70711C9.31658 10.0976 8.68342 10.0976 8.29289 9.70711L6 7.41421ZM15 6C14.4477 6 14 5.55229 14 5C14 4.44772 14.4477 4 15 4H19C19.5523 4 20 4.44772 20 5V9.00001C20 9.55229 19.5523 10 19 10C18.4477 10 18 9.55229 18 9.00001V7.41421L15.7071 9.70711C15.3166 10.0976 14.6834 10.0976 14.2929 9.70711C13.9024 9.31658 13.9024 8.68342 14.2929 8.29289L16.5858 6H15ZM5 14C5.55228 14 6 14.4477 6 15L6 16.5858L8.29289 14.2929C8.68342 13.9024 9.31658 13.9024 9.70711 14.2929C10.0976 14.6834 10.0976 15.3166 9.70711 15.7071L7.41421 18H9C9.55228 18 10 18.4477 10 19C10 19.5523 9.55228 20 9 20H5C4.73478 20 4.48043 19.8946 4.29289 19.7071C4.10536 19.5196 4 19.2652 4 19L4 15C4 14.4477 4.44772 14 5 14ZM14.2929 15.7071C13.9024 15.3166 13.9024 14.6834 14.2929 14.2929C14.6834 13.9024 15.3166 13.9024 15.7071 14.2929L18 16.5858V15C18 14.4477 18.4477 14 19 14C19.5523 14 20 14.4477 20 15V19C20 19.5523 19.5523 20 19 20H15C14.4477 20 14 19.5523 14 19C14 18.4477 14.4477 18 15 18H16.5858L14.2929 15.7071Z" fill="#0D0D0D"/>
</svg>

<svg width="24" height="24" fill="none" xmlns="http://www.w3.org/2000/svg"><path d="M6 7.414V9a1 1 0 11-2 0V5a1 1 0 011-1h4a1 1 0 110 2H7.414l2.293 2.293a1 1 0 01-1.414 1.414L6 7.414zM15 6a1 1 0 110-2h4a1 1 0 011 1v4a1 1 0 11-2 0V7.414l-2.293 2.293a1 1 0 01-1.414-1.414L16.586 6H15zM5 14a1 1 0 011 1v1.586l2.293-2.293a1 1 0 011.414 1.414L7.414 18H9a1 1 0 110 2H5a1 1 0 01-1-1v-4a1 1 0 011-1zm9.293 1.707a1 1 0 011.414-1.414L18 16.586V15a1 1 0 112 0v4a1 1 0 01-1 1h-4a1 1 0 110-2h1.586l-2.293-2.293z" fill="#0D0D0D"/></svg>
